X: 39717
T: Terry's Travels
R: reel
M: 4/4
K: Amixolydian
EG|AAGA EA A2|BG G2 DGBd|=c2 Ac BE E2|dBAG A2 EG|
AAGA EA A2|BG G2 DGBd|(3Bcd ef g2 ed|BAGE A2 BA|
(3Bcd ef g2 ed|eaaf gfed|=c2 Ac BE E2|dBAG A2 BA|
(3Bcd ef g2 ba|g2 ed g2 ed|(3Bcd ef g2 ed|BAGE A4|

